X: 1
T: Shottis
R: shottish
O:
B:
S: Janet Gage, Oct 1998
Z: John Chambers <jc@trillian.mit.edu>
N:
M: 2/4
L: 1/16
K: D
|::: "D"D2DF AFDF | "G"GFGA "Em"B2-B2 \
|1,3. A2"A7"Ac ecAc | "D"dcde f2-f2 \
:|2,4. A2"A7"Ac egec | "D"d2d2 d4 :: "D"{f}afdf afdf |
| "G"gagf "Em"e3f | "A7"gece gecA | "D"dcde f3g | "D"afdf afdf \
| "G"gagf "Em"efed | "A7" cdcB AGEC | "D"D2D2 D4 :|
